X:1
T:Title
%%score { ( 1 3 ) | ( 2 4 ) }
L:1/8
Q:1/4=80
M:4/4
K:A
V:1 treble nm="Grand Piano"
V:3 treble 
V:2 bass 
V:4 bass 
V:1
 [CA]2 [CA][DB] [Ec][Ec][Fd][Fd] | [Ec]4 [CA]2 [EA]2 | F2 F2 A2 F2 | [CE]6 z2 | %4
w: J.~H.~Tenney * * * * * *||||
 [EG]2 [EG][FA] [GB][GB][Ac][Ac] | [GB]4 [EG]2 [EG]2 | [^DF]2 [FA]2 [EG]2 [A,DF]2 | [G,E]6 z2 | %8
w: ||||
 [CE]6 [CE]2 | FFFF [A,DF]4 | [CE]6 [Ec]2 | BBcc d4 | z4 [EA]4 | [FA]4 [DF]4[K:bass] | %14
w: ||||||
 A,A,A,[K:treble]c c2 B2 | [CA]6 z2 |] %16
w: ||
V:2
 [A,,A,]2 [A,,A,][A,,A,] [A,,A,][A,,A,][A,,A,][A,,A,] | [A,,A,]4 [A,,A,]2 [C,A,]2 | %2
 [D,A,D]2 [D,A,D]2 [D,F,D]2 [D,A,D]2 | [A,,A,]6 z2 | [E,B,]2 [E,B,][E,B,] [E,E][E,E][E,E][E,E] | %5
 [E,E]4 [E,B,]2 [E,B,]2 | [B,,B,]2 [B,,B,]2 [B,,B,]2 B,,2 | E,6 z2 | A,,2 A,,2 A,,A,,A,,A,, | %9
 DDDD D,4 | A,,2 A,,2 A,,A,,[A,,A,]A,, | EEEE [E,B,E]4 | A,A,A,A, A,A, A,2 | D,D,D,D, D,D, D,2 | %14
 E,E,E,[E,A,E] [E,A,E]2 [E,G,D]2 | [A,,A,]6 z2 |] %16
V:3
 x8 | x8 | x8 | x8 | x8 | x8 | x8 | x8 | A,2 A,2 A,A,A,A, | x8 | A,2 A,2 A,A, z A, | x8 | %12
 [Ec]4 CC C2 | DDDD A,[K:bass]A, A,2 | [CE]4[K:treble] z4 | x8 |] %16
V:4
 x8 | x8 | x8 | x8 | x8 | x8 | x8 | x8 | x8 | [D,A,]2 [D,A,]2 z4 | x8 | [E,G,]2 [E,A,]2 z4 | x8 | %13
 x8 | x8 | x8 |] %16

